src/assets/connect.svg

<svg width="52" height="52" viewBox="0 0 52 52" fill="none" xmlns="http://www.w3.org/2000/svg">
<g filter="url(#filter0_d_3598_697)">
<rect x="2" y="1" width="48" height="48" rx="10" fill="white"/>
<rect x="2.5" y="1.5" width="47" height="47" rx="9.5" stroke="#EAECF0"/>
<path d="M22.9996 27C22.9996 27 24.3121 28.5 26.4996 28.5C28.6871 28.5 29.9996 27 29.9996 27M29.2496 22H29.2596M23.7496 22H23.7596M26.4996 33C31.194 33 34.9996 29.1944 34.9996 24.5C34.9996 19.8056 31.194 16 26.4996 16C21.8052 16 17.9996 19.8056 17.9996 24.5C17.9996 25.45 18.1555 26.3636 18.443 27.2166C18.5512 27.5376 18.6053 27.6981 18.6151 27.8214C18.6247 27.9432 18.6174 28.0286 18.5873 28.1469C18.5568 28.2668 18.4894 28.3915 18.3547 28.6408L16.7191 31.6684C16.4857 32.1002 16.3691 32.3161 16.3952 32.4828C16.4179 32.6279 16.5034 32.7557 16.6288 32.8322C16.7728 32.9201 17.0169 32.8948 17.5052 32.8444L22.6262 32.315C22.7813 32.299 22.8588 32.291 22.9295 32.2937C22.999 32.2963 23.0481 32.3029 23.1159 32.3185C23.1848 32.3344 23.2714 32.3678 23.4448 32.4345C24.3928 32.7998 25.4228 33 26.4996 33ZM29.7496 22C29.7496 22.2761 29.5258 22.5 29.2496 22.5C28.9735 22.5 28.7496 22.2761 28.7496 22C28.7496 21.7239 28.9735 21.5 29.2496 21.5C29.5258 21.5 29.7496 21.7239 29.7496 22ZM24.2496 22C24.2496 22.2761 24.0258 22.5 23.7496 22.5C23.4735 22.5 23.2496 22.2761 23.2496 22C23.2496 21.7239 23.4735 21.5 23.7496 21.5C24.0258 21.5 24.2496 21.7239 24.2496 22Z" stroke="#344054" stroke-width="2" stroke-linecap="round" stroke-linejoin="round"/>
</g>
<defs>
<filter id="filter0_d_3598_697" x="0" y="0" width="52" height="52" filterUnits="userSpaceOnUse" color-interpolation-filters="sRGB">
<feFlood flood-opacity="0" result="BackgroundImageFix"/>
<feColorMatrix in="SourceAlpha" type="matrix" values="0 0 0 0 0 0 0 0 0 0 0 0 0 0 0 0 0 0 127 0" result="hardAlpha"/>
<feOffset dy="1"/>
<feGaussianBlur stdDeviation="1"/>
<feColorMatrix type="matrix" values="0 0 0 0 0.0627451 0 0 0 0 0.0941176 0 0 0 0 0.156863 0 0 0 0.05 0"/>
<feBlend mode="normal" in2="BackgroundImageFix" result="effect1_dropShadow_3598_697"/>
<feBlend mode="normal" in="SourceGraphic" in2="effect1_dropShadow_3598_697" result="shape"/>
</filter>
</defs>
</svg>

<svg xmlns="http://www.w3.org/2000/svg" width="52" height="52" fill="none"><g filter="url(#a)"><rect width="48" height="48" x="2" y="1" fill="#fff" rx="10"/><rect width="47" height="47" x="2.5" y="1.5" stroke="#EAECF0" rx="9.5"/><path stroke="#344054" stroke-linecap="round" stroke-linejoin="round" stroke-width="2" d="M23 27s1.312 1.5 3.5 1.5S30 27 30 27m-.75-5h.01m-5.51 0h.01m2.74 11a8.5 8.5 0 1 0-8.057-5.783c.108.32.162.481.172.604a.9.9 0 0 1-.028.326c-.03.12-.098.245-.232.494l-1.636 3.027c-.233.432-.35.648-.324.815a.5.5 0 0 0 .234.35c.144.087.388.062.876.011l5.121-.529c.155-.016.233-.024.303-.021s.12.009.187.025c.069.015.155.049.329.115A8.5 8.5 0 0 0 26.5 33m3.25-11a.5.5 0 1 1-1 0 .5.5 0 0 1 1 0m-5.5 0a.5.5 0 1 1-1 0 .5.5 0 0 1 1 0"/></g><defs><filter id="a" width="52" height="52" x="0" y="0" color-interpolation-filters="sRGB" filterUnits="userSpaceOnUse"><feFlood flood-opacity="0" result="BackgroundImageFix"/><feColorMatrix in="SourceAlpha" result="hardAlpha" values="0 0 0 0 0 0 0 0 0 0 0 0 0 0 0 0 0 0 127 0"/><feOffset dy="1"/><feGaussianBlur stdDeviation="1"/><feColorMatrix values="0 0 0 0 0.0627451 0 0 0 0 0.0941176 0 0 0 0 0.156863 0 0 0 0.05 0"/><feBlend in2="BackgroundImageFix" result="effect1_dropShadow_3598_697"/><feBlend in="SourceGraphic" in2="effect1_dropShadow_3598_697" result="shape"/></filter></defs></svg>
